X:36
T:Seneca Square Dance
M:C|
K:G
A2|"G"B4  BABc | d2(B2 B2) A2|"Em"  B4  BA B2  |  A (GG)E G2 A2|
"G"B4  BABc | d2(B2 B2) AB |"D" cBAG FDEF |"G"G4:|
|:B2d2|"G" g2  ga gf e2 | d(B B)d B2ef | gfef g2a2| "Em" b(e e)fe2ef|
|"C" g2ga gf e2 |"G" d(B B)d B2AB |"D" cBAG FDEF |"G"G6:|
